icons/mimetypes/32/application-x-executable.svg

<?xml version="1.0" encoding="UTF-8" standalone="no"?>
<!-- Created with Inkscape (http://www.inkscape.org/) -->

<svg
   xmlns:dc="http://purl.org/dc/elements/1.1/"
   xmlns:cc="http://creativecommons.org/ns#"
   xmlns:rdf="http://www.w3.org/1999/02/22-rdf-syntax-ns#"
   xmlns:svg="http://www.w3.org/2000/svg"
   xmlns="http://www.w3.org/2000/svg"
   xmlns:xlink="http://www.w3.org/1999/xlink"
   xmlns:sodipodi="http://sodipodi.sourceforge.net/DTD/sodipodi-0.dtd"
   xmlns:inkscape="http://www.inkscape.org/namespaces/inkscape"
   width="32"
   version="1.1"
   height="32"
   id="svg2"
   inkscape:version="0.91 r13725"
   sodipodi:docname="application-x-executable.svg">
  <sodipodi:namedview
     pagecolor="#ffffff"
     bordercolor="#666666"
     borderopacity="1"
     objecttolerance="10"
     gridtolerance="10"
     guidetolerance="10"
     inkscape:pageopacity="0"
     inkscape:pageshadow="2"
     inkscape:window-width="1920"
     inkscape:window-height="1013"
     id="namedview30"
     showgrid="false"
     inkscape:zoom="1"
     inkscape:cx="-7.6488583"
     inkscape:cy="50.220844"
     inkscape:window-x="0"
     inkscape:window-y="38"
     inkscape:window-maximized="1"
     inkscape:current-layer="layer1"
     inkscape:snap-bbox="true"
     inkscape:bbox-nodes="true">
    <inkscape:grid
       type="xygrid"
       id="grid4158" />
  </sodipodi:namedview>
  <defs
     id="defs5455">
    <linearGradient
       id="linearGradient4351">
      <stop
         id="stop4353"
         style="stop-color:#036b53" />
      <stop
         id="stop4355"
         style="stop-color:#036b53"
         offset="1" />
    </linearGradient>
    <linearGradient
       inkscape:collect="always"
       id="linearGradient9654">
      <stop
         style="stop-color:#060606;stop-opacity:1"
         offset="0"
         id="stop9656" />
      <stop
         style="stop-color:#000000;stop-opacity:0"
         offset="1"
         id="stop9658" />
    </linearGradient>
    <linearGradient
       inkscape:collect="always"
       id="linearGradient6251">
      <stop
         style="stop-color:#ffffff;stop-opacity:0"
         offset="0"
         id="stop6253" />
      <stop
         style="stop-color:#ffffff;stop-opacity:0.2"
         offset="1"
         id="stop6255" />
    </linearGradient>
    <linearGradient
       y2="365.36221"
       x2="58"
       y1="392.36221"
       x1="58"
       gradientTransform="translate(309.57143,152.4358)"
       gradientUnits="userSpaceOnUse"
       id="linearGradient4178-7"
       xlink:href="#linearGradient6251"
       inkscape:collect="always" />
    <linearGradient
       y2="24"
       x2="54"
       y1="17"
       x1="47"
       gradientTransform="translate(357.57143,507.798)"
       gradientUnits="userSpaceOnUse"
       id="linearGradient4257-5"
       xlink:href="#linearGradient9654"
       inkscape:collect="always" />
  </defs>
  <metadata
     id="metadata5458">
    <rdf:RDF>
      <cc:Work
         rdf:about="">
        <dc:format>image/svg+xml</dc:format>
        <dc:type
           rdf:resource="http://purl.org/dc/dcmitype/StillImage" />
        <dc:title />
      </cc:Work>
    </rdf:RDF>
  </metadata>
  <g
     inkscape:label="Capa 1"
     inkscape:groupmode="layer"
     id="layer1"
     transform="matrix(1 0 0 1 -384.57143 -515.798)">
    <rect
       width="0"
       x="375.89221"
       y="566.79797"
       height="10.999983"
       style="fill:#ffffff"
       id="rect4035" />
    <rect
       width="0"
       x="375.57144"
       y="565.79797"
       height="10.999983"
       style="fill:#ffffff"
       id="rect4035-4" />
    <rect
       width="0"
       x="374.03558"
       y="565.68414"
       height="11.1139"
       style="fill:#fbd2bf"
       id="rect4035-3" />
    <rect
       width="0"
       x="375.57144"
       y="565.79797"
       height="10.999983"
       style="fill:#fbd2bf"
       id="rect4035-1" />
    <rect
       width="0"
       x="375.57144"
       y="565.79797"
       height="10.999983"
       style="fill:#fbfbfb"
       id="rect4035-5" />
    <rect
       width="0"
       x="375.89221"
       y="526.79797"
       height="10.999983"
       style="fill:#ffffff"
       id="rect4035-12" />
    <rect
       width="0"
       x="375.57144"
       y="525.79797"
       height="10.999983"
       style="fill:#ffffff"
       id="rect4035-4-7" />
    <rect
       width="0"
       x="415.89221"
       y="526.79797"
       height="10.999983"
       style="fill:#ffffff"
       id="rect4035-127" />
    <rect
       width="0"
       x="415.57144"
       y="525.79797"
       height="10.999983"
       style="fill:#ffffff"
       id="rect4035-4-0" />
    <rect
       width="0"
       x="414.03558"
       y="525.68414"
       height="11.1139"
       style="fill:#fbd2bf"
       id="rect4035-3-9" />
    <rect
       width="0"
       x="415.57144"
       y="525.79797"
       height="10.999983"
       style="fill:#fbd2bf"
       id="rect4035-1-3" />
    <rect
       width="0"
       x="415.89221"
       y="526.79797"
       height="10.999983"
       style="fill:#ffffff"
       id="rect4035-7" />
    <rect
       width="0"
       x="415.57144"
       y="525.79797"
       height="10.999983"
       style="fill:#ffffff"
       id="rect4035-4-53" />
    <rect
       width="0"
       x="414.03558"
       y="525.68414"
       height="11.1139"
       style="fill:#fbd2bf"
       id="rect4035-3-5" />
    <rect
       width="0"
       x="415.57144"
       y="525.79797"
       height="10.999983"
       style="fill:#fbd2bf"
       id="rect4035-1-6" />
    <rect
       width="0"
       x="415.57144"
       y="525.79797"
       height="10.999983"
       style="fill:#fbfbfb"
       id="rect4035-5-6" />
    <rect
       width="0"
       x="415.89221"
       y="526.79797"
       height="10.999983"
       style="fill:#ffffff"
       id="rect4035-53" />
    <rect
       width="0"
       x="415.57144"
       y="525.79797"
       height="10.999983"
       style="fill:#ffffff"
       id="rect4035-4-5" />
    <rect
       width="0"
       x="415.89221"
       y="526.79797"
       height="10.999983"
       style="fill:#ffffff"
       id="rect4035-62" />
    <rect
       width="0"
       x="415.57144"
       y="525.79797"
       height="10.999983"
       style="fill:#ffffff"
       id="rect4035-4-9" />
    <rect
       width="0"
       x="405.89221"
       y="-536.79797"
       height="10.999983"
       style="fill:#ffffff"
       id="rect4035-6"
       transform="scale(1,-1)" />
    <rect
       width="0"
       x="405.57144"
       y="-537.79797"
       height="10.999983"
       style="fill:#ffffff"
       id="rect4035-4-2"
       transform="scale(1,-1)" />
    <rect
       width="0"
       x="404.03558"
       y="-537.9118"
       height="11.1139"
       style="fill:#fbd2bf"
       id="rect4035-3-1"
       transform="scale(1,-1)" />
    <rect
       width="0"
       x="405.57144"
       y="-537.79797"
       height="10.999983"
       style="fill:#fbd2bf"
       id="rect4035-1-2"
       transform="scale(1,-1)" />
    <rect
       width="0"
       x="375.89221"
       y="566.79797"
       height="10.999983"
       style="fill:#ffffff"
       id="rect4035-28" />
    <rect
       width="0"
       x="375.57144"
       y="565.79797"
       height="10.999983"
       style="fill:#ffffff"
       id="rect4035-4-97" />
    <rect
       width="0"
       x="374.03558"
       y="565.68414"
       height="11.1139"
       style="fill:#fbd2bf"
       id="rect4035-3-36" />
    <rect
       width="0"
       x="375.57144"
       y="565.79797"
       height="10.999983"
       style="fill:#fbd2bf"
       id="rect4035-1-12" />
    <rect
       width="0"
       x="375.57144"
       y="565.79797"
       height="10.999983"
       style="fill:#fbfbfb"
       id="rect4035-5-9" />
    <rect
       width="0"
       x="375.89221"
       y="526.79797"
       height="10.999983"
       style="fill:#ffffff"
       id="rect4035-12-3" />
    <rect
       width="0"
       x="375.57144"
       y="525.79797"
       height="10.999983"
       style="fill:#ffffff"
       id="rect4035-4-7-1" />
    <rect
       width="0"
       x="415.57144"
       y="525.79797"
       height="10.999983"
       style="fill:#036b53"
       id="rect4035-127-9" />
    <rect
       width="0"
       x="415.57144"
       y="525.79797"
       height="10.999983"
       style="fill:#036b53"
       id="rect4035-6-4" />
    <rect
       width="0"
       x="415.57144"
       y="525.79797"
       height="10.999983"
       style="fill:#036b53"
       id="rect4035-3-0" />
    <rect
       width="0"
       x="335.89221"
       y="526.79797"
       height="10.999983"
       style="fill:#ffffff"
       id="rect4035-36" />
    <rect
       width="0"
       x="335.57144"
       y="525.79797"
       height="10.999983"
       style="fill:#ffffff"
       id="rect4035-4-9-7" />
    <rect
       width="0"
       x="334.03558"
       y="525.68414"
       height="11.1139"
       style="fill:#fbd2bf"
       id="rect4035-3-7" />
    <rect
       width="0"
       x="335.57144"
       y="525.79797"
       height="10.999983"
       style="fill:#fbd2bf"
       id="rect4035-1-3-8" />
    <rect
       width="0"
       x="375.89221"
       y="-536.79797"
       height="10.999983"
       style="fill:#ffffff"
       id="rect4035-5-6-4"
       transform="scale(1,-1)" />
    <rect
       width="0"
       x="375.57144"
       y="-537.79797"
       height="10.999983"
       style="fill:#ffffff"
       id="rect4035-4-6"
       transform="scale(1,-1)" />
    <rect
       width="0"
       x="374.03558"
       y="-537.9118"
       height="11.1139"
       style="fill:#fbd2bf"
       id="rect4035-3-2"
       transform="scale(1,-1)" />
    <rect
       width="0"
       x="375.57144"
       y="-537.79797"
       height="10.999983"
       style="fill:#fbd2bf"
       id="rect4035-1-9"
       transform="scale(1,-1)" />
    <rect
       width="0"
       x="345.89221"
       y="-536.79797"
       height="10.999983"
       style="fill:#ffffff"
       id="rect4035-56"
       transform="scale(1,-1)" />
    <rect
       width="0"
       x="345.57144"
       y="-537.79797"
       height="10.999983"
       style="fill:#ffffff"
       id="rect4035-4-2-5"
       transform="scale(1,-1)" />
    <rect
       width="0"
       x="344.03558"
       y="-537.9118"
       height="11.1139"
       style="fill:#fbd2bf"
       id="rect4035-3-9-0"
       transform="scale(1,-1)" />
    <rect
       width="0"
       x="345.57144"
       y="-537.79797"
       height="10.999983"
       style="fill:#fbd2bf"
       id="rect4035-1-1"
       transform="scale(1,-1)" />
    <rect
       width="0"
       x="358.67029"
       y="522.76691"
       height="20.166639"
       style="fill:#5e6b78"
       id="rect4035-60" />
    <rect
       width="0"
       x="550.1452"
       y="523.93359"
       height="21.99995"
       style="fill:#ffffff"
       id="rect4035-75" />
    <rect
       width="0"
       x="549.50366"
       y="521.93359"
       height="21.99995"
       style="fill:#ffffff"
       id="rect4035-4-62" />
    <rect
       width="0"
       x="546.43188"
       y="521.70593"
       height="22.227785"
       style="fill:#fbd2bf"
       id="rect4035-3-6" />
    <rect
       width="0"
       x="549.50366"
       y="521.93359"
       height="21.99995"
       style="fill:#fbd2bf"
       id="rect4035-1-18" />
    <rect
       width="0"
       x="589.5036"
       y="521.93359"
       height="21.99995"
       style="fill:#fbfbfb"
       id="rect4035-2" />
    <rect
       width="0"
       x="549.50366"
       y="521.93359"
       height="21.99995"
       style="fill:#fbfbfb"
       id="rect4035-8" />
    <rect
       width="0"
       x="390.14526"
       y="523.93359"
       height="21.99995"
       style="fill:#ffffff"
       id="rect4035-7-3" />
    <rect
       width="0"
       x="389.50372"
       y="521.93359"
       height="21.99995"
       style="fill:#ffffff"
       id="rect4035-4-5-6" />
    <rect
       width="0"
       x="386.43201"
       y="521.70593"
       height="22.227785"
       style="fill:#fbd2bf"
       id="rect4035-3-3" />
    <rect
       width="0"
       x="389.50372"
       y="521.93359"
       height="21.99995"
       style="fill:#fbd2bf"
       id="rect4035-1-5" />
    <rect
       width="0"
       x="470.14523"
       y="-543.93353"
       height="21.99995"
       style="fill:#ffffff"
       id="rect4035-5-7"
       transform="scale(1,-1)" />
    <rect
       width="0"
       x="469.50369"
       y="-545.93353"
       height="21.99995"
       style="fill:#ffffff"
       id="rect4035-4-6-9"
       transform="scale(1,-1)" />
    <rect
       width="0"
       x="466.43198"
       y="-546.16119"
       height="22.227785"
       style="fill:#fbd2bf"
       id="rect4035-3-2-2"
       transform="scale(1,-1)" />
    <rect
       width="0"
       x="469.50369"
       y="-545.93353"
       height="21.99995"
       style="fill:#fbd2bf"
       id="rect4035-1-9-0"
       transform="scale(1,-1)" />
    <g
       id="g4540">
      <path
         d="m 389.57143,545.798 0,-28 15,0 7.00001,7 0,0 0,21 -14.00001,0 z"
         id="path4211"
         style="color:#000000;clip-rule:nonzero;display:inline;overflow:visible;visibility:visible;opacity:1;isolation:auto;mix-blend-mode:normal;color-interpolation:sRGB;color-interpolation-filters:linearRGB;solid-color:#000000;solid-opacity:1;fill:#555555;fill-opacity:1;fill-rule:nonzero;stroke-width:1;stroke-linecap:butt;stroke-linejoin:miter;stroke-miterlimit:4;stroke-dasharray:none;stroke-dashoffset:0;stroke-opacity:1;color-rendering:auto;image-rendering:auto;shape-rendering:auto;text-rendering:auto;enable-background:accumulate"
         inkscape:connector-curvature="0"
         inkscape:export-xdpi="96"
         inkscape:export-ydpi="96"
         sodipodi:nodetypes="cccccccc" />
      <rect
         transform="scale(1,-1)"
         id="rect4169-9"
         style="color:#000000;clip-rule:nonzero;display:inline;overflow:visible;visibility:visible;opacity:0.4;isolation:auto;mix-blend-mode:normal;color-interpolation:sRGB;color-interpolation-filters:linearRGB;solid-color:#000000;solid-opacity:1;fill:#ffffff;fill-opacity:1;fill-rule:nonzero;stroke-width:1;stroke-linecap:butt;stroke-linejoin:miter;stroke-miterlimit:4;stroke-dasharray:none;stroke-dashoffset:0;stroke-opacity:1;color-rendering:auto;image-rendering:auto;shape-rendering:auto;text-rendering:auto;enable-background:accumulate"
         height="0.999973"
         y="-518.79797"
         x="389.57144"
         width="14.999983" />
      <rect
         transform="scale(1,-1)"
         id="rect4236-1"
         style="color:#000000;clip-rule:nonzero;display:inline;overflow:visible;visibility:visible;opacity:0.35;isolation:auto;mix-blend-mode:normal;color-interpolation:sRGB;color-interpolation-filters:linearRGB;solid-color:#000000;solid-opacity:1;fill:#000000;fill-opacity:1;fill-rule:nonzero;stroke-width:1;stroke-linecap:butt;stroke-linejoin:miter;stroke-miterlimit:4;stroke-dasharray:none;stroke-dashoffset:0;stroke-opacity:1;color-rendering:auto;image-rendering:auto;shape-rendering:auto;text-rendering:auto;enable-background:accumulate"
         height="1.00003"
         y="-545.79797"
         x="389.57144"
         width="21.999994" />
      <path
         d="m 411.57144,524.79797 -7.00001,-7 0,7 z"
         id="path4314-2"
         style="color:#000000;clip-rule:nonzero;display:inline;overflow:visible;visibility:visible;opacity:0.5;isolation:auto;mix-blend-mode:normal;color-interpolation:sRGB;color-interpolation-filters:linearRGB;solid-color:#000000;solid-opacity:1;fill:#ffffff;fill-opacity:1;fill-rule:evenodd;stroke-width:1;stroke-linecap:butt;stroke-linejoin:miter;stroke-miterlimit:4;stroke-dasharray:none;stroke-dashoffset:0;stroke-opacity:1;color-rendering:auto;image-rendering:auto;shape-rendering:auto;text-rendering:auto;enable-background:accumulate"
         inkscape:connector-curvature="0" />
      <path
         sodipodi:nodetypes="cccc"
         d="m 404.57143,524.798 7.00001,7 0,-7 z"
         id="path4255-1"
         style="opacity:0.4;fill:url(#linearGradient4257-5);fill-rule:evenodd"
         inkscape:connector-curvature="0"
         inkscape:export-xdpi="96"
         inkscape:export-ydpi="96" />
      <path
         inkscape:connector-curvature="0"
         style="color:#000000;clip-rule:nonzero;display:inline;overflow:visible;visibility:visible;opacity:1;isolation:auto;mix-blend-mode:normal;color-interpolation:sRGB;color-interpolation-filters:linearRGB;solid-color:#000000;solid-opacity:1;fill:#343434;fill-opacity:1;fill-rule:nonzero;stroke-width:1;stroke-linecap:butt;stroke-linejoin:miter;stroke-miterlimit:4;stroke-dasharray:none;stroke-dashoffset:0;stroke-opacity:1;color-rendering:auto;image-rendering:auto;shape-rendering:auto;text-rendering:auto;enable-background:accumulate"
         d="m 395.57143,528.798 0,11 12,0 0,-11 -12,0 z m 1,2 10,0 0,8 -10,0 0,-8 z m 4,1 0,4 2,0 0,-4 -2,0 z m 0,5 0,1 2,0 0,-1 -2,0 z"
         id="path4533" />
      <path
         id="path4342"
         transform="translate(384.57143,515.798)"
         d="M 10 12 L 10 23 L 22 23 L 22 12 L 10 12 z M 11 14 L 21 14 L 21 22 L 11 22 L 11 14 z M 15 15 L 15 19 L 17 19 L 17 15 L 15 15 z M 15 20 L 15 21 L 17 21 L 17 20 L 15 20 z "
         style="color:#000000;clip-rule:nonzero;display:inline;overflow:visible;visibility:visible;opacity:1;isolation:auto;mix-blend-mode:normal;color-interpolation:sRGB;color-interpolation-filters:linearRGB;solid-color:#000000;solid-opacity:1;fill:#e0e0e0;fill-opacity:1;fill-rule:nonzero;stroke-width:1;stroke-linecap:butt;stroke-linejoin:miter;stroke-miterlimit:4;stroke-dasharray:none;stroke-dashoffset:0;stroke-opacity:1;color-rendering:auto;image-rendering:auto;shape-rendering:auto;text-rendering:auto;enable-background:accumulate" />
      <path
         sodipodi:nodetypes="cccccccc"
         inkscape:export-ydpi="96"
         inkscape:export-xdpi="96"
         inkscape:connector-curvature="0"
         style="fill:url(#linearGradient4178-7);fill-opacity:1"
         id="path7628-2-0"
         d="m 389.57143,545.798 0,-28 15,0 7.00001,7 0,0 0,21 -14.00001,0 z" />
    </g>
  </g>
</svg>

<svg width="32" xmlns="http://www.w3.org/2000/svg" height="32" xmlns:xlink="http://www.w3.org/1999/xlink">
 <defs>
  <linearGradient id="a" y1="392.36" y2="365.36" x2="0" gradientUnits="userSpaceOnUse" gradientTransform="translate(309.57 152.44)">
   <stop stop-color="#ffffff" stop-opacity="0"/>
   <stop offset="1" stop-color="#ffffff" stop-opacity=".2"/>
  </linearGradient>
  <linearGradient id="b" y1="17" y2="24" x1="47" x2="54" gradientUnits="userSpaceOnUse" gradientTransform="translate(357.57 507.8)">
   <stop stop-color="#060606"/>
   <stop offset="1" stop-opacity="0"/>
  </linearGradient>
  <path id="c" d="m389.57 545.8v-28h15l7 7v21h-14z"/>
 </defs>
 <g transform="translate(-384.57-515.8)">
  <g color-rendering="auto" color-interpolation-filters="linearRGB" shape-rendering="auto" image-rendering="auto" text-rendering="auto" color-interpolation="sRGB" color="#000000">
   <use fill="#555555" xlink:href="#c"/>
   <g transform="scale(1-1)">
    <rect opacity=".4" x="389.57" y="-518.8" width="15" fill="#ffffff" height="1"/>
    <rect opacity=".35" x="389.57" y="-545.8" width="22" height="1"/>
   </g>
   <path opacity=".5" fill="#ffffff" fill-rule="evenodd" d="m411.57 524.8l-7-7v7z"/>
  </g>
  <path opacity=".4" fill="url(#b)" fill-rule="evenodd" d="m404.57 524.8l7 7v-7z"/>
  <g color-rendering="auto" color-interpolation-filters="linearRGB" shape-rendering="auto" image-rendering="auto" text-rendering="auto" color-interpolation="sRGB" color="#000000">
   <path fill="#343434" d="m395.57 528.8v11h12v-11zm1 2h10v8h-10zm4 1v4h2v-4zm0 5v1h2v-1z"/>
   <path fill="#e0e0e0" d="m10 12v11h12v-11zm1 2h10v8h-10zm4 1v4h2v-4zm0 5v1h2v-1z" transform="translate(384.57 515.8)"/>
  </g>
  <use fill="url(#a)" xlink:href="#c"/>
 </g>
</svg>
